arkscan/icons/changelly.svg

<svg viewBox="0 0 20 20" fill="none" xmlns="http://www.w3.org/2000/svg">
  <path fill-rule="evenodd" clip-rule="evenodd"
    d="M9.46387 16.2702C9.32401 16.41 9.13753 16.5499 8.99767 16.6898C8.67133 16.9229 8.29837 17.156 7.97203 17.3424C7.59907 17.5289 7.22611 17.6688 6.85315 17.8086C6.48019 17.9485 6.06061 18.0417 5.68765 18.135C5.50116 18.1816 5.26806 18.2282 5.08158 18.2282L4.80186 18.2748H4.52214L4.24242 18.3214H3.31002C2.70396 18.3214 2.0979 18.2748 1.53846 18.2282C1.58508 18.135 1.67832 18.0417 1.72494 17.9485C1.91142 17.6688 2.0979 17.3424 2.23776 17.0161C2.51748 16.3634 2.75058 15.7107 2.93706 15.0581C3.12354 14.4054 3.31002 13.7993 3.54312 13.1467C3.77622 12.5406 4.05594 11.8879 4.38228 11.3285C4.14918 11.5616 3.9627 11.8413 3.77622 12.121C3.58974 12.4008 3.40326 12.6805 3.2634 13.0068C2.93706 13.6129 2.65734 14.2189 2.42424 14.8716C2.19114 15.4777 1.95804 16.1303 1.6317 16.6898C1.35198 17.2492 0.979021 17.762 0.559441 18.2748L0 18.8809L0.699301 18.9741C1.53846 19.114 2.37762 19.1606 3.2634 19.1606C3.4965 19.1606 3.68298 19.1606 3.91608 19.114L4.1958 19.0674L4.52214 19.0207C4.75524 18.9741 4.94172 18.9275 5.17483 18.9275C5.40793 18.8809 5.59441 18.8343 5.82751 18.7876C6.01399 18.741 6.24709 18.6478 6.43357 18.6012C6.62005 18.5079 6.85315 18.4613 7.03963 18.3681C7.41259 18.1816 7.83217 17.9951 8.15851 17.7154C8.53147 17.4823 8.85781 17.2026 9.13753 16.8762C9.41725 16.5499 9.69697 16.2236 9.88345 15.8506L9.46387 16.2702ZM14.1725 4.89502C14.4056 4.66192 14.7319 4.52206 15.0583 4.52206C15.3846 4.52206 15.711 4.66192 15.9441 4.89502C16.4569 5.40784 16.4569 6.20037 15.9441 6.66656C15.4312 7.17938 14.6387 7.17938 14.1725 6.66656C13.9394 6.43347 13.7995 6.10713 13.7995 5.78079C13.7995 5.45445 13.9394 5.12812 14.1725 4.89502ZM15.0583 7.83205C15.5711 7.83205 16.0839 7.64557 16.5035 7.226C17.296 6.43347 17.296 5.12812 16.5035 4.33559C15.711 3.54305 14.4056 3.54305 13.6131 4.33559C13.2401 4.70854 13.007 5.22136 13.007 5.78079C13.007 6.34023 13.2401 6.85304 13.6131 7.226C14.0326 7.64557 14.5455 7.83205 15.0583 7.83205ZM15.6643 10.7691C12.7273 13.3332 11.5152 13.5663 10.3497 13.0068L11.655 11.3285C11.8415 11.0954 11.9814 10.8157 12.0746 10.4894L12.5874 8.25163L10.3497 8.76444C10.0699 8.85768 9.74359 8.99754 9.51049 9.18402L7.83217 10.4894C7.27273 9.27726 7.50583 8.06515 10.0699 5.12812C12.4942 2.37757 17.6224 1.72489 19.1142 1.58503C19.0676 3.1701 18.4149 8.34487 15.6643 10.7691ZM13.7063 14.7317C13.6597 14.8716 13.6131 14.9648 13.5198 15.0115C13.1935 15.2446 12.7273 15.5243 12.3077 15.7574V15.6641C12.4942 14.8716 12.4942 14.2655 12.3077 13.7993C12.8671 13.6129 13.4732 13.3332 14.1259 12.867C13.986 13.5663 13.7995 14.3122 13.7063 14.7317ZM9.13753 13.2865C8.95105 13.5196 8.67133 13.6129 8.39161 13.6129H7.73893L10.0233 10.8623L7.27273 13.1467V12.494C7.27273 12.2143 7.36597 11.9346 7.59907 11.7481L10.0233 9.83669C10.1632 9.69683 10.3497 9.60359 10.5361 9.55697L11.5152 9.32387L11.2821 10.3029C11.2354 10.4894 11.1422 10.6758 11.0023 10.8157L9.13753 13.2865ZM5.17483 8.53134H5.08158C5.31468 8.11177 5.64103 7.64557 5.82751 7.31924C5.92075 7.226 6.01399 7.13276 6.10723 7.13276C6.52681 7.03952 7.27273 6.85304 7.92541 6.71318C7.45921 7.41247 7.13287 7.97191 6.99301 8.53134C6.57343 8.29824 5.96737 8.29824 5.17483 8.53134ZM19.5804 0.885742C19.3007 0.885742 12.5874 1.21208 9.55711 4.70854C9.23077 5.0815 8.95105 5.40784 8.71795 5.73417C8.25175 5.87403 6.71329 6.29361 6.01399 6.43347C5.68765 6.48008 5.40793 6.66656 5.22145 6.94628C4.75524 7.64557 3.91608 9.04416 3.91608 9.09078L3.2634 10.0698L4.33566 9.60359C5.03497 9.27726 6.24709 8.99754 6.66667 9.23064C6.71329 9.27726 6.80653 9.32387 6.80653 9.55697C6.80653 10.0698 6.94639 10.536 7.22611 11.0488L7.08625 11.1887C6.66667 11.515 6.43357 12.0278 6.48019 12.5406V14.452H8.34499C8.85781 14.4986 9.37063 14.2655 9.69697 13.846L9.79021 13.7061C10.303 13.9392 10.7692 14.0791 11.2821 14.1257C11.4685 14.1257 11.5618 14.2189 11.6084 14.2655C11.8881 14.6851 11.5618 15.8972 11.2354 16.5965L10.7692 17.6688L11.7949 17.0627C11.8415 17.0161 13.2401 16.2236 13.9394 15.7574C14.2191 15.5709 14.4056 15.2912 14.4522 14.9648C14.5921 14.2655 15.0117 12.7271 15.1515 12.2609C15.4779 12.0278 15.8042 11.7015 16.1772 11.4218C19.6737 8.34486 19.9534 1.63165 20 1.35194V0.932362L19.5804 0.885742Z"
    fill="#60CD80" />
</svg>

<svg viewBox="0 0 20 20" fill="none" xmlns="http://www.w3.org/2000/svg"><path fill-rule="evenodd" clip-rule="evenodd" d="M9.464 16.27c-.14.14-.326.28-.466.42-.327.233-.7.466-1.026.652-.373.187-.746.327-1.119.467s-.792.233-1.165.326a2.73 2.73 0 0 1-.606.093l-.28.047h-.28l-.28.046H3.31c-.606 0-1.212-.046-1.772-.093.047-.093.14-.186.187-.28.186-.28.373-.606.513-.932.28-.653.513-1.305.7-1.958.186-.653.372-1.259.605-1.911.233-.606.513-1.26.84-1.819-.234.234-.42.513-.607.793-.186.28-.373.56-.513.886a13.403 13.403 0 0 0-.839 1.865c-.233.606-.466 1.258-.792 1.818-.28.56-.653 1.072-1.073 1.585L0 18.88l.7.093c.838.14 1.678.187 2.563.187.234 0 .42 0 .653-.047l.28-.047.326-.046c.233-.047.42-.094.653-.094.233-.046.42-.093.653-.14.186-.046.42-.14.606-.186.186-.093.42-.14.606-.233.373-.186.792-.373 1.119-.653.372-.233.699-.512.979-.839.28-.326.559-.652.745-1.025l-.42.42Zm4.708-11.375c.234-.233.56-.373.886-.373.327 0 .653.14.886.373.513.513.513 1.305 0 1.772-.513.512-1.305.512-1.772 0a1.274 1.274 0 0 1-.373-.886c0-.327.14-.653.373-.886Zm.886 2.937c.513 0 1.026-.186 1.445-.606a2.054 2.054 0 0 0 0-2.89 2.054 2.054 0 0 0-2.89 0 2.045 2.045 0 0 0-.606 1.445c0 .56.233 1.072.606 1.445.42.42.933.606 1.445.606Zm.606 2.937c-2.937 2.564-4.149 2.797-5.314 2.238l1.305-1.678c.187-.234.326-.513.42-.84l.512-2.237-2.237.512c-.28.094-.606.234-.84.42l-1.678 1.305c-.56-1.212-.326-2.424 2.238-5.36 2.424-2.751 7.552-3.404 9.044-3.544-.046 1.585-.7 6.76-3.45 9.184Zm-1.958 3.963c-.046.14-.093.233-.186.28-.326.233-.793.512-1.212.745v-.093c.186-.792.186-1.399 0-1.865a6.741 6.741 0 0 0 1.818-.932c-.14.7-.326 1.445-.42 1.865Zm-4.568-1.445c-.187.233-.467.326-.746.326h-.653l2.284-2.75-2.75 2.284v-.653c0-.28.093-.56.326-.746l2.424-1.911c.14-.14.327-.233.513-.28l.98-.233-.234.979c-.047.186-.14.373-.28.513l-1.864 2.47ZM5.175 8.53h-.093c.233-.42.559-.885.746-1.212.093-.093.186-.186.28-.186.419-.093 1.165-.28 1.817-.42-.466.7-.792 1.259-.932 1.818-.42-.233-1.026-.233-1.818 0ZM19.58.886c-.28 0-6.993.326-10.023 3.823-.326.373-.606.699-.84 1.025-.465.14-2.004.56-2.703.7a1.144 1.144 0 0 0-.793.512c-.466.7-1.305 2.098-1.305 2.145l-.653.979 1.073-.466c.699-.327 1.911-.606 2.33-.373.047.046.14.093.14.326 0 .513.14.979.42 1.492l-.14.14c-.42.326-.652.839-.606 1.352v1.911h1.865a1.553 1.553 0 0 0 1.352-.606l.093-.14c.513.233.98.373 1.492.42.187 0 .28.093.326.14.28.42-.046 1.631-.373 2.33l-.466 1.073 1.026-.606c.046-.047 1.445-.84 2.144-1.306.28-.186.467-.466.513-.792.14-.7.56-2.238.7-2.704.326-.233.652-.56 1.025-.84 3.497-3.076 3.776-9.79 3.823-10.07V.933l-.42-.046Z" fill="#60CD80"/></svg>
